public/svgs/logos/moyora-logo-small.svg

<svg width="133" height="22" viewBox="0 0 133 22" fill="none" xmlns="http://www.w3.org/2000/svg">
<path d="M16.8746 14.4823L14.3627 11.9727H17.915V7.4928H14.3627L16.8746 4.98317L13.7082 1.81453L11.1963 4.32642V0.776367H6.71869V4.32642L4.2068 1.81453L1.04041 4.98317L3.55231 7.4928H0V11.9727H3.55231L1.04041 14.4823L4.2068 17.6487L6.71869 15.1391V18.6891H11.1963V15.1391L13.7082 17.6487L16.8746 14.4823Z" fill="#FF6D3A"/>
<path d="M33.1927 12.0291L37.3837 9.73387C37.3837 9.73387 33.2424 7.46346 33.1927 7.43864C33.2085 7.38447 34.5311 2.85268 34.5311 2.85268L29.9451 4.191C29.918 4.14135 27.6499 0 27.6499 0L25.3546 4.191C25.3005 4.1752 20.7687 2.85268 20.7687 2.85268L22.107 7.43864C22.0574 7.46572 17.916 9.73387 17.916 9.73387L22.107 12.0291L20.7687 16.615C20.7687 16.615 25.3027 15.2903 25.3546 15.2767L27.6499 19.4677C27.6499 19.4677 29.9203 15.3264 29.9451 15.2767L34.5311 16.615C34.5311 16.615 33.2063 12.081 33.1927 12.0291Z" fill="#4181F0"/>
<path d="M41.8833 3.05109H45.5462V4.57447C46.2684 3.5318 47.4713 2.75769 49.1008 2.75769C51.0529 2.75769 52.4409 3.66721 53.2444 5.21767C54.0726 3.56113 55.8646 2.75769 57.388 2.75769C60.5679 2.75769 62.3869 5.05744 62.3869 8.66391V16.414H58.7263V9.27778C58.7263 7.30077 58.0853 6.09786 56.641 6.09786C55.0634 6.09786 53.9688 7.32784 53.9688 9.8939V16.4162H50.3082V9.28003C50.3082 7.30302 49.6672 6.10011 48.2228 6.10011C46.6453 6.10011 45.5507 7.3301 45.5507 9.89616V16.4185H41.8878V3.0556L41.8833 3.05109Z" fill="black"/>
<path d="M81.1738 22.0001L83.9791 15.6651L78.3662 3.04919H82.3744L85.9561 11.7088L89.5106 3.04919H93.5459L85.1526 22.0001H81.1692H81.1738Z" fill="black"/>
<path d="M109.109 3.05123H112.772V5.18849C113.225 3.8795 114.589 2.89099 116.085 2.89099C116.46 2.89099 116.859 2.91808 117.315 3.05123V6.76603C116.753 6.57871 116.245 6.47264 115.658 6.47264C113.921 6.47264 112.772 7.83579 112.772 10.0272V16.4141H109.109V3.05123Z" fill="black"/>
<path d="M78.3294 9.73158C78.3294 13.5841 75.2059 16.7076 71.3534 16.7076C67.501 16.7076 64.3774 13.5841 64.3774 9.73158C64.3774 5.87911 67.501 2.75562 71.3534 2.75562C75.2059 2.75562 78.3294 5.87911 78.3294 9.73158ZM71.3534 6.17702C69.3899 6.17702 67.7989 7.76811 67.7989 9.73158C67.7989 11.6951 69.3899 13.2861 71.3534 13.2861C73.3169 13.2861 74.908 11.6951 74.908 9.73158C74.908 7.76811 73.3169 6.17702 71.3534 6.17702Z" fill="black"/>
<path d="M107.478 9.73158C107.478 13.5841 104.355 16.7076 100.502 16.7076C96.6499 16.7076 93.5264 13.5841 93.5264 9.73158C93.5264 5.87911 96.6499 2.75562 100.502 2.75562C104.355 2.75562 107.478 5.87911 107.478 9.73158ZM100.502 6.17702C98.5389 6.17702 96.9478 7.76811 96.9478 9.73158C96.9478 11.6951 98.5389 13.2861 100.502 13.2861C102.466 13.2861 104.057 11.6951 104.057 9.73158C104.057 7.76811 102.466 6.17702 100.502 6.17702Z" fill="black"/>
<path d="M132.487 3.05109V16.414H128.826V15.4187C127.687 16.2289 126.294 16.7096 124.787 16.7096C120.934 16.7096 117.811 13.5861 117.811 9.73366C117.811 5.88119 120.934 2.75769 124.787 2.75769C126.292 2.75769 127.684 3.23615 128.826 4.04862V3.05334H132.487V3.05109ZM125.272 6.1791C123.308 6.1791 121.717 7.77019 121.717 9.73366C121.717 11.6971 123.308 13.2882 125.272 13.2882C127.235 13.2882 128.826 11.6971 128.826 9.73366C128.826 7.77019 127.235 6.1791 125.272 6.1791Z" fill="black"/>
</svg>

<svg width="133" height="22" fill="none" xmlns="http://www.w3.org/2000/svg"><path d="m16.875 14.482-2.512-2.51h3.552v-4.48h-3.552l2.512-2.509-3.167-3.168-2.512 2.511V.776H6.72v3.55L4.207 1.815 1.04 4.983l2.512 2.51H0v4.48h3.552l-2.512 2.51 3.167 3.166 2.512-2.51v3.55h4.477v-3.55l2.512 2.51 3.167-3.167Z" fill="#FF6D3A"/><path d="m33.193 12.03 4.19-2.296s-4.14-2.27-4.19-2.295l1.338-4.586-4.586 1.338L27.65 0l-2.295 4.191-4.586-1.338 1.338 4.586-4.191 2.295 4.191 2.295-1.338 4.586s4.534-1.325 4.586-1.338l2.295 4.19s2.27-4.14 2.295-4.19l4.586 1.338s-1.325-4.534-1.338-4.586Z" fill="#4181F0"/><path d="M41.883 3.051h3.663v1.523c.722-1.042 1.925-1.816 3.555-1.816 1.952 0 3.34.91 4.143 2.46.829-1.657 2.62-2.46 4.144-2.46 3.18 0 4.999 2.3 4.999 5.906v7.75h-3.66V9.278c0-1.977-.642-3.18-2.086-3.18-1.578 0-2.672 1.23-2.672 3.796v6.522h-3.66V9.28c0-1.977-.642-3.18-2.086-3.18-1.578 0-2.672 1.23-2.672 3.796v6.523h-3.663V3.056l-.005-.005ZM81.174 22l2.805-6.335L78.366 3.05h4.008l3.582 8.66 3.555-8.66h4.035L85.153 22h-3.984.005Zm27.935-18.949h3.663v2.137c.453-1.308 1.817-2.297 3.313-2.297.375 0 .774.027 1.23.16v3.715c-.562-.187-1.07-.293-1.657-.293-1.737 0-2.886 1.363-2.886 3.554v6.387h-3.663V3.051ZM78.33 9.732a6.976 6.976 0 1 1-13.953-.001 6.976 6.976 0 0 1 13.952 0Zm-6.977-3.555a3.554 3.554 0 1 0 0 7.108 3.554 3.554 0 0 0 0-7.108Zm36.125 3.555a6.976 6.976 0 1 1-13.952 0 6.976 6.976 0 0 1 13.952 0Zm-6.976-3.555a3.554 3.554 0 1 0 0 7.108 3.554 3.554 0 0 0 0-7.108Zm31.985-3.126v13.363h-3.661v-.995a6.976 6.976 0 1 1 0-11.37v-.996h3.661v-.002Zm-7.215 3.128a3.554 3.554 0 1 0-.002 7.108 3.554 3.554 0 0 0 .002-7.108Z" fill="#000"/></svg>
